icons/copilot-24.svg

<svg xmlns="http://www.w3.org/2000/svg" width="24" height="24" viewBox="0 0 24 24"><path d="M9.75 14a.75.75 0 01.75.75v2.5a.75.75 0 01-1.5 0v-2.5a.75.75 0 01.75-.75zm4.5 0a.75.75 0 01.75.75v2.5a.75.75 0 01-1.5 0v-2.5a.75.75 0 01.75-.75z"/><path d="M12 2c2.214 0 4.248.657 5.747 1.756.136.099.268.204.397.312.584.235 1.077.546 1.474.952.85.869 1.132 2.037 1.132 3.368 0 .368-.014.733-.052 1.086l.633 1.478.043.022A4.75 4.75 0 0124 15.222v1.028c0 .529-.309.987-.565 1.293-.28.336-.636.653-.966.918a13.84 13.84 0 01-1.299.911l-.024.015-.006.004-.039.025c-.223.135-.45.264-.68.386-.46.245-1.122.571-1.941.895C16.845 21.344 14.561 22 12 22c-2.561 0-4.845-.656-6.479-1.303a19.046 19.046 0 01-1.942-.894 14.081 14.081 0 01-.535-.3l-.144-.087-.04-.025-.006-.004-.024-.015a13.16 13.16 0 01-1.299-.911 6.913 6.913 0 01-.967-.918C.31 17.237 0 16.779 0 16.25v-1.028a4.75 4.75 0 012.626-4.248l.043-.022.633-1.478a10.195 10.195 0 01-.052-1.086c0-1.331.282-2.498 1.132-3.368.397-.406.89-.717 1.474-.952.129-.108.261-.213.397-.312C7.752 2.657 9.786 2 12 2zm-8 9.654v6.669a17.59 17.59 0 002.073.98C7.595 19.906 9.686 20.5 12 20.5c2.314 0 4.405-.594 5.927-1.197a17.59 17.59 0 002.073-.98v-6.669l-.038-.09c-.046.061-.095.12-.145.177-.793.9-2.057 1.259-3.782 1.259-1.59 0-2.738-.544-3.508-1.492a4.323 4.323 0 01-.355-.508h-.344a4.323 4.323 0 01-.355.508C10.704 12.456 9.555 13 7.965 13c-1.725 0-2.989-.359-3.782-1.259a3.026 3.026 0 01-.145-.177zm6.309-1.092c.445-.547.708-1.334.851-2.301.057-.357.087-.718.09-1.079v-.031c-.001-.762-.166-1.26-.43-1.568l-.008-.01c-.341-.391-1.046-.689-2.533-.529-1.505.163-2.347.537-2.824 1.024-.462.473-.705 1.18-.705 2.32 0 .605.044 1.087.135 1.472.092.384.231.672.423.89.365.413 1.084.75 2.657.75.91 0 1.527-.223 1.964-.564.14-.11.268-.235.38-.374zm2.504-2.497c.136 1.057.403 1.913.878 2.497.442.545 1.134.938 2.344.938 1.573 0 2.292-.337 2.657-.751.384-.435.558-1.151.558-2.361 0-1.14-.243-1.847-.705-2.319-.477-.488-1.318-.862-2.824-1.025-1.487-.161-2.192.139-2.533.529-.268.308-.437.808-.438 1.578v.02c.002.299.023.598.063.894z"/></svg>

<svg xmlns="http://www.w3.org/2000/svg" width="24" height="24" viewBox="0 0 24 24">
  <defs/>
  <path d="M9.75,14 A0.75 0.75 0 0 1 10.5,14.75 L10.5,17.25 A0.75 0.75 0 0 1 9,17.25 L9,14.75 A0.75 0.75 0 0 1 9.75,14 Z M14.25,14 A0.75 0.75 0 0 1 15,14.75 L15,17.25 A0.75 0.75 0 0 1 13.5,17.25 L13.5,14.75 A0.75 0.75 0 0 1 14.25,14 Z"/>
  <path d="M12,2 C14.214,2 16.248,2.657 17.747,3.756 C17.883,3.855 18.015,3.96 18.144,4.068 C18.728,4.303 19.221,4.614 19.618,5.02 C20.468,5.889 20.75,7.057 20.75,8.388 C20.75,8.756 20.736,9.121 20.698,9.474 L21.331,10.952 L21.374,10.974 C22.983,11.778 24,13.423 24,15.222 L24,16.25 C24,16.779 23.691,17.237 23.435,17.543 C23.155,17.879 22.799,18.196 22.469,18.461 C22.134,18.728 21.802,18.96 21.557,19.124 C21.43,19.21 21.301,19.293 21.17,19.372 L21.146,19.387 L21.14,19.391 L21.101,19.416 C20.878,19.551 20.651,19.68 20.421,19.802 C19.961,20.047 19.299,20.373 18.48,20.697 C16.845,21.344 14.561,22 12,22 C9.439,22 7.155,21.344 5.521,20.697 C4.701,20.373 4.039,20.048 3.579,19.803 C3.348,19.68 3.168,19.576 3.044,19.503 L2.9,19.416 L2.86,19.391 L2.854,19.387 L2.83,19.372 C2.379,19.095 1.945,18.79 1.531,18.461 C1.201,18.196 0.844,17.879 0.564,17.543 C0.31,17.237 0,16.779 0,16.25 L0,15.222 C0,13.423 1.017,11.778 2.626,10.974 L2.669,10.952 L3.302,9.474 C3.264,9.121 3.25,8.756 3.25,8.388 C3.25,7.057 3.532,5.89 4.382,5.02 C4.779,4.614 5.272,4.303 5.856,4.068 C5.985,3.96 6.117,3.855 6.253,3.756 C7.752,2.657 9.786,2 12,2 Z M4,11.654 L4,18.323 C4.669,18.694 5.361,19.022 6.073,19.303 C7.595,19.906 9.686,20.5 12,20.5 C14.314,20.5 16.405,19.906 17.927,19.303 C18.639,19.022 19.331,18.694 20,18.323 L20,11.654 L19.962,11.564 C19.916,11.625 19.867,11.684 19.817,11.741 C19.024,12.641 17.76,13 16.035,13 C14.445,13 13.297,12.456 12.527,11.508 C12.396,11.347 12.278,11.177 12.172,11 C12.057,11.001 11.943,11.001 11.828,11 C11.722,11.177 11.604,11.347 11.473,11.508 C10.704,12.456 9.555,13 7.965,13 C6.24,13 4.976,12.641 4.183,11.741 C4.132,11.684 4.084,11.624 4.038,11.564 Z M10.309,10.562 C10.754,10.015 11.017,9.228 11.16,8.261 C11.217,7.904 11.247,7.543 11.25,7.182 L11.25,7.151 C11.249,6.389 11.084,5.891 10.82,5.583 L10.812,5.573 C10.471,5.182 9.766,4.884 8.279,5.044 C6.774,5.207 5.932,5.581 5.455,6.068 C4.993,6.541 4.75,7.248 4.75,8.388 C4.75,8.993 4.794,9.475 4.885,9.86 C4.977,10.244 5.116,10.532 5.308,10.75 C5.673,11.163 6.392,11.5 7.965,11.5 C8.875,11.5 9.492,11.277 9.929,10.936 C10.069,10.826 10.197,10.701 10.309,10.562 Z M12.813,8.065 C12.949,9.122 13.216,9.978 13.691,10.562 C14.133,11.107 14.825,11.5 16.035,11.5 C17.608,11.5 18.327,11.163 18.692,10.749 C19.076,10.314 19.25,9.598 19.25,8.388 C19.25,7.248 19.007,6.541 18.545,6.069 C18.068,5.581 17.227,5.207 15.721,5.044 C14.234,4.883 13.529,5.183 13.188,5.573 C12.92,5.881 12.751,6.381 12.75,7.151 L12.75,7.171 C12.752,7.47 12.773,7.769 12.813,8.065 Z"/>
</svg>
